img/Viadeo-black.svg

<?xml version="1.0" encoding="UTF-8" standalone="no"?>
<svg width="46px" height="54px" viewBox="0 0 46 54" version="1.1" xmlns="http://www.w3.org/2000/svg" xmlns:xlink="http://www.w3.org/1999/xlink">
    <!-- Generator: Sketch 3.7.2 (28276) - http://www.bohemiancoding.com/sketch -->
    <title>Viadeo-black</title>
    <desc>Created with Sketch.</desc>
    <defs></defs>
    <g id="Icons" stroke="none" stroke-width="1" fill="none" fill-rule="evenodd">
        <g id="Black" transform="translate(-602.000000, -255.000000)" fill="#000000">
            <g id="Viadeo" transform="translate(602.000000, 255.000000)">
                <path d="M21.0379147,0.010952381 C25.4744076,7.50238095 27.8834123,14.2161905 28.428436,15.8152381 L28.428436,15.7495238 C27.3383886,4.20571429 21.0379147,0.010952381 21.0379147,0.010952381 L21.0379147,0.010952381 Z M28.428436,15.8152381 C28.5265403,17.2938095 30.1507109,43.6342857 16.2744076,48.9133333 C16.2744076,48.9133333 17.549763,49.1542857 18.9886256,49.0885714 C18.9886256,49.0885714 36.6473934,37.8952381 28.5483412,16.1766667 C28.5483412,16.1766667 28.5156398,16.0452381 28.428436,15.8152381 L28.428436,15.8152381 Z M43.2094787,1.22666667 C40.9530806,6.04571429 36.7781991,6.93285714 36.7781991,6.93285714 C32.6033175,7.9952381 31.142654,9.61619048 31.142654,9.61619048 C26.9677725,13.8328571 30.2597156,18.947619 30.2597156,18.947619 C39.2744076,16.8885714 42.5663507,9.44095238 42.5663507,9.44095238 C42.1630332,14.4461905 31.4369668,20.3495238 31.4369668,20.3495238 C34.9905213,23.8433333 38.3805687,23.4161905 40.6151659,22.08 C43.5800948,20.3057143 45.0080569,16.417619 45.0080569,16.417619 C47.885782,7.78714286 43.2094787,1.22666667 43.2094787,1.22666667 L43.2094787,1.22666667 Z" id="Shape"></path>
                <path d="M32.9848341,34.4671429 C32.9848341,37.1285714 32.3526066,39.6038095 31.0881517,41.9038095 C29.8236967,44.2038095 28.1232227,45.9780952 25.9649289,47.2266667 C23.8175355,48.4752381 21.4521327,49.0995238 18.8905213,49.0995238 C16.3180095,49.0995238 13.9635071,48.4752381 11.8161137,47.2266667 C9.66872038,45.9780952 7.95734597,44.2038095 6.692891,41.9038095 C5.42843602,39.6038095 4.79620853,37.1285714 4.79620853,34.4671429 C4.79620853,30.3490476 6.18056872,26.8333333 8.9492891,23.92 C11.7180095,21.017619 15.0317536,19.5609524 18.8905213,19.5609524 C20.7218009,19.5609524 22.4331754,19.9004762 24.0246445,20.557619 C24.1881517,18.8709524 24.7767773,17.3047619 25.4199052,16.0233333 C23.414218,15.2895238 21.2450237,14.9280952 18.9014218,14.9280952 C13.3312796,14.9280952 8.72037915,16.9871429 5.06872038,21.1161905 C1.7549763,24.8509524 0.0872037915,29.2757143 0.0872037915,34.357619 C0.0872037915,39.4942857 1.84218009,43.9847619 5.34123223,47.8180952 C8.85118483,51.662381 13.363981,53.5790476 18.8905213,53.5790476 C24.3952607,53.5790476 28.9080569,51.662381 32.407109,47.8180952 C35.9170616,43.9738095 37.6611374,39.4833333 37.6611374,34.357619 C37.6611374,31.6085714 37.1815166,29.0566667 36.2222749,26.7128571 C34.6090047,27.7095238 33.0829384,28.2242857 31.8184834,28.4980952 C32.6033175,30.3161905 32.9848341,32.3095238 32.9848341,34.4671429 L32.9848341,34.4671429 Z" id="Shape"></path>
            </g>
        </g>
    </g>
</svg>

<svg width="46" height="54" xmlns="http://www.w3.org/2000/svg"><g fill-rule="evenodd"><path d="M21.038.011c4.436 7.491 6.845 14.205 7.39 15.804v-.065C27.338 4.206 21.038.01 21.038.01zm7.39 15.804c.099 1.479 1.723 27.82-12.154 33.098 0 0 1.276.241 2.715.176 0 0 17.658-11.194 9.56-32.912 0 0-.033-.132-.12-.362zM43.21 1.227c-2.256 4.819-6.43 5.706-6.43 5.706-4.176 1.062-5.636 2.683-5.636 2.683-4.175 4.217-.883 9.332-.883 9.332 9.014-2.06 12.306-9.507 12.306-9.507-.403 5.005-11.129 10.909-11.129 10.909 3.554 3.493 6.944 3.066 9.178 1.73 2.965-1.774 4.393-5.662 4.393-5.662 2.878-8.63-1.799-15.191-1.799-15.191z"/><path d="M32.985 34.467c0 2.662-.632 5.137-1.897 7.437-1.264 2.3-2.965 4.074-5.123 5.323-2.147 1.248-4.513 1.873-7.074 1.873-2.573 0-4.927-.625-7.075-1.873-2.147-1.249-3.859-3.023-5.123-5.323-1.265-2.3-1.897-4.775-1.897-7.437 0-4.118 1.385-7.634 4.153-10.547 2.769-2.902 6.083-4.359 9.942-4.359 1.83 0 3.542.34 5.134.997.163-1.687.752-3.253 1.395-4.535-2.006-.733-4.175-1.095-6.519-1.095-5.57 0-10.18 2.06-13.832 6.188C1.755 24.851.087 29.276.087 34.358c0 5.136 1.755 9.627 5.254 13.46 3.51 3.844 8.023 5.761 13.55 5.761 5.504 0 10.017-1.917 13.516-5.76 3.51-3.845 5.254-8.336 5.254-13.461 0-2.75-.48-5.301-1.439-7.645a13.948 13.948 0 0 1-4.404 1.785c.785 1.818 1.167 3.812 1.167 5.97z"/></g></svg>
